X: 1
T: A Fish Out Of Water
M: 4/4
L: 1/8
R: reel
K: Emix
eB~B2 gBeB|~B2eB dBAF|E2BE cEBc|dfcf Bcdf|
eB~B2 (3gag fg|eAce BE~E2|D2cA EAFA|1 dffe dBAd:|2 dffe dBAF||
|:BE~E2 cEBE|~E2BE AFDF|E2BE cEBc|dfcf BAFA|
BE~E2 BEEc|dB~B2 AFDC|B,F~F2 AFAB|1 dffe dBAF:|2 dffe dBAd||
